img/calendar_today.svg

<svg width="15" height="15" viewBox="0 0 15 15" fill="none" xmlns="http://www.w3.org/2000/svg">
<g clip-path="url(#clip0_2_16)">
<path d="M12.4998 1.87515H11.8748V0.625153H10.6248V1.87515H4.37482V0.625153H3.12482V1.87515H2.49982C1.81232 1.87515 1.24982 2.43765 1.24982 3.12515V13.1252C1.24982 13.8127 1.81232 14.3752 2.49982 14.3752H12.4998C13.1873 14.3752 13.7498 13.8127 13.7498 13.1252V3.12515C13.7498 2.43765 13.1873 1.87515 12.4998 1.87515ZM12.4998 13.1252H2.49982V5.00015H12.4998V13.1252Z" fill="white"/>
</g>
<defs>
<clipPath id="clip0_2_16">
<rect width="15" height="15" fill="white"/>
</clipPath>
</defs>
</svg>

<svg width="15" height="15" fill="none" xmlns="http://www.w3.org/2000/svg"><g clip-path="url(#a)"><path d="M12.5 1.875h-.625V.625h-1.25v1.25h-6.25V.625h-1.25v1.25H2.5c-.688 0-1.25.563-1.25 1.25v10c0 .688.562 1.25 1.25 1.25h10c.687 0 1.25-.562 1.25-1.25v-10c0-.687-.563-1.25-1.25-1.25Zm0 11.25h-10V5h10v8.125Z" fill="#fff"/></g><defs><clipPath id="a"><path fill="#fff" d="M0 0h15v15H0z"/></clipPath></defs></svg>
